icon-svg/bulb-group-sultan-spot-off.svg

<svg xmlns="http://www.w3.org/2000/svg" viewBox="0 0 24 24"><path fill="#44739e" d="M5.854 17.896a.52.52 0 0 0 .482.482.52.52 0 0 0 .482-.482v-.96c-.241 0-.723-.241-.964-.241v1.2Zm2.41 0a.482.482 0 0 0 .963 0v-1.2c-.241 0-.482.241-.963.241Zm10.359-1.446-4.819-4.818L4.169 2l-1.2 1.205 2.649 2.649a6.5 6.5 0 0 0-3.131 1.2v.245c0 .722 2.409 1.445 5.059 1.445h.963l.482.723h-1.45a15.1 15.1 0 0 1-4.577-.723 5.97 5.97 0 0 0 1.927 3.613 1.06 1.06 0 0 1 .241.723v2.168a.89.89 0 0 0 .24.723 3.1 3.1 0 0 0 1.928.482 3.1 3.1 0 0 0 1.927-.482.89.89 0 0 0 .241-.723v-2.167a.89.89 0 0 1 .241-.723c.482-.241.723-.481.964-.481 0-.241-.241-.723-.241-.963l1.205 1.199a17 17 0 0 1 .48 4.099c0 .241 0 .482.241.482l.241.241c.723 0 1.687.241 2.892.241h1.445l.723.723h-4.578l.482 2.649c0 .241 0 .241.241.482v.241l.482.482a.89.89 0 0 0 .723.241h.722a.89.89 0 0 0 .723-.241l.482-.482.482-.482c.241-.241.241-.241.241-.482l.482-2.408 2.408 2.408.964-.964Zm1.444-8.191a16.4 16.4 0 0 1-4.817.482 17 17 0 0 1-3.372-.241l6.745 6.745a40 40 0 0 1 1.444-6.986m-8.912-.723a18 18 0 0 0 4.336.482 23.7 23.7 0 0 0 5.058-.482c.482-.722 1.446-2.89.241-4.098C19.344 2 15.491 2 15.25 2s-3.852 0-5.3 1.205c-.723.722-.482 2.167 0 3.131Z"/></svg>

<?xml version="1.0" encoding="UTF-8"?>
<svg width="24px" height="24px" viewBox="0 0 24 24" version="1.1" fill="#44739e" xmlns="http://www.w3.org/2000/svg" xmlns:xlink="http://www.w3.org/1999/xlink">
            <path d="M 5.855,17.9 A 0.518,0.518 0 0 0 6.337,18.382 0.518,0.518 0 0 0 6.819,17.9 v -0.96 c -0.241,0 -0.723,-0.241 -0.964,-0.241 v 1.2 z m 2.41,0 a 0.482,0.482 0 0 0 0.964,0 v -1.2 c -0.241,0 -0.482,0.241 -0.964,0.241 z m 10.362,-1.446 v 0 L 13.807,11.635 4.169,2 l -1.2,1.205 2.65,2.65 a 6.475,6.475 0 0 0 -3.132,1.2 V 7.3 c 0,0.723 2.41,1.446 5.06,1.446 H 8.511 L 8.993,9.469 H 7.542 A 15.127,15.127 0 0 1 2.964,8.746 5.969,5.969 0 0 0 4.892,12.36 1.056,1.056 0 0 1 5.133,13.083 v 2.169 a 0.888,0.888 0 0 0 0.24,0.723 3.114,3.114 0 0 0 1.928,0.482 3.114,3.114 0 0 0 1.928,-0.482 0.885,0.885 0 0 0 0.241,-0.723 v -2.168 a 0.885,0.885 0 0 1 0.241,-0.723 c 0.482,-0.241 0.723,-0.481 0.964,-0.481 0,-0.241 -0.241,-0.723 -0.241,-0.964 l 1.205,1.2 a 17.067,17.067 0 0 1 0.481,4.1 c 0,0.241 0,0.482 0.241,0.482 l 0.241,0.241 c 0.723,0 1.687,0.241 2.892,0.241 h 1.446 l 0.723,0.723 h -4.579 l 0.482,2.65 c 0,0.241 0,0.241 0.241,0.482 v 0.241 0 l 0.482,0.482 a 0.885,0.885 0 0 0 0.723,0.241 h 0.723 a 0.885,0.885 0 0 0 0.723,-0.241 l 0.482,-0.482 v 0 l 0.482,-0.482 c 0.241,-0.241 0.241,-0.241 0.241,-0.482 l 0.482,-2.409 2.409,2.409 0.964,-0.964 z M 20.072,8.261 A 16.387,16.387 0 0 1 15.253,8.743 17.058,17.058 0 0 1 11.88,8.502 l 6.747,6.747 A 39.765,39.765 0 0 1 20.072,8.261 M 11.157,7.538 a 17.936,17.936 0 0 0 4.337,0.482 23.653,23.653 0 0 0 5.06,-0.482 C 21.036,6.815 22,4.647 20.795,3.438 19.349,2 15.494,2 15.253,2 15.012,2 11.4,2 9.952,3.205 9.229,3.928 9.47,5.373 9.952,6.337 Z"/>

</svg>
